data/resources/icons/scalable/status/success-symbolic.svg

<?xml version="1.0" encoding="UTF-8"?>
<svg xmlns="http://www.w3.org/2000/svg" height="16px" viewBox="0 0 16 16" width="16px"><path d="m 2.902344 1 c -1.054688 0 -1.902344 0.847656 -1.902344 1.898438 v 10.203124 c 0 1.050782 0.847656 1.898438 1.902344 1.898438 h 10.195312 c 1.054688 0 1.902344 -0.847656 1.902344 -1.898438 v -6.6875 l -5.292969 5.292969 c -0.390625 0.390625 -1.023437 0.390625 -1.414062 0 l -3 -3 c -0.398438 -0.398437 -0.292969 -1.382812 -0.292969 -1.707031 c 0.542969 0 1.453125 0.03125 1.707031 0.292969 l 2.292969 2.292969 l 5.292969 -5.292969 c 0.179687 -0.1875 0.425781 -0.296875 0.6875 -0.304688 h 0.019531 v -1.089843 c 0 -1.050782 -0.847656 -1.898438 -1.902344 -1.898438 z m 0 0" fill="#222222"/></svg>

<svg xmlns="http://www.w3.org/2000/svg" width="16" height="16"><path fill="#222" d="M2.902 1A1.896 1.896 0 0 0 1 2.898v10.204C1 14.152 1.848 15 2.902 15h10.196A1.896 1.896 0 0 0 15 13.102V6.414l-5.293 5.293a1 1 0 0 1-1.414 0l-3-3C4.895 8.309 5 7.324 5 7c.543 0 1.453.031 1.707.293L9 9.586l5.293-5.293a.991.991 0 0 1 .687-.305H15v-1.09C15 1.848 14.152 1 13.098 1zm0 0"/></svg>
